module-11/build/images/sprite/shopping-cart.svg

<svg xmlns="http://www.w3.org/2000/svg" width="18" height="15"><path fill-rule="evenodd" fill="#FFF" d="M17.726 3.663h.001l-2.475 5.5a.826.826 0 01-.697.485l-7.128.475.412 1.176H15.6a1.65 1.65 0 11-1.65 1.651h-7.7a1.65 1.65 0 11-1.65-1.651h1.491L2.915 2.225h-1.89a.825.825 0 010-1.65H3.5c.36 0 .663.232.776.553l.003-.001.48 1.373h12.216a.825.825 0 01.751 1.163zM5.337 4.15l1.525 4.357 7.089-.473 1.748-3.884H5.337z"/></svg>

<svg 
 xmlns="http://www.w3.org/2000/svg"
 xmlns:xlink="http://www.w3.org/1999/xlink"
 width="18px" height="15px">
<path fill-rule="evenodd"  fill="rgb(255, 255, 255)"
 d="M17.726,3.663 L17.727,3.663 L15.252,9.163 L15.252,9.163 C15.130,9.434 14.866,9.627 14.555,9.648 L14.555,9.648 L7.427,10.123 L7.839,11.299 L15.600,11.299 C16.511,11.299 17.250,12.038 17.250,12.950 C17.250,13.861 16.511,14.600 15.600,14.600 C14.689,14.600 13.950,13.861 13.950,12.950 L6.250,12.950 C6.250,13.861 5.511,14.600 4.600,14.600 C3.689,14.600 2.950,13.861 2.950,12.950 C2.950,12.038 3.689,11.299 4.600,11.299 L6.091,11.299 L2.915,2.225 L1.025,2.225 C0.569,2.225 0.200,1.855 0.200,1.400 C0.200,0.944 0.569,0.575 1.025,0.575 L3.500,0.575 C3.860,0.575 4.163,0.807 4.276,1.128 L4.279,1.127 L4.759,2.500 L16.975,2.500 C17.431,2.500 17.800,2.869 17.800,3.325 C17.800,3.445 17.773,3.559 17.726,3.663 ZM5.337,4.150 L6.862,8.507 L13.951,8.034 L15.699,4.150 L5.337,4.150 Z"/>
</svg>
